resources/svg/microphone.svg

<svg xmlns="http://www.w3.org/2000/svg" viewBox="0 0 15 15" fill="currentColor"><path d="M5 2.5C5 1.11929 6.11929 0 7.5 0C8.88071 0 10 1.11929 10 2.5V6.5C10 7.88071 8.88071 9 7.5 9C6.11929 9 5 7.88071 5 6.5V2.5Z" fill="black"/><path d="M2 4V6.5C2 9.36902 4.19675 11.725 7 11.9776V14H5V15H10V14H8V11.9776C10.8033 11.725 13 9.36902 13 6.5V4H12V6.5C12 8.98528 9.98528 11 7.5 11C5.01472 11 3 8.98528 3 6.5V4H2Z" fill="black"/></svg>

<svg xmlns="http://www.w3.org/2000/svg" viewBox="0 0 15 15" fill="currentColor"><path d="M5 2.5a2.5 2.5 0 015 0v4a2.5 2.5 0 01-5 0v-4z" fill="currentColor"/><path d="M2 4v2.5a5.5 5.5 0 005 5.478V14H5v1h5v-1H8v-2.022A5.5 5.5 0 0013 6.5V4h-1v2.5a4.5 4.5 0 01-9 0V4H2z" fill="currentColor"/></svg>
